X:1
T:In the Baggage Coach Ahead
M:3/4
L:1/4
K:G
 D/2D/2| G B G| E2 D/2D/2| G B/2 G3/2| E2 D/2D/2| G/2G/2G/2 A3/2| G2 F|\
 E3| z2 G| E F G| A2 B/2^c/2| d B A| G2G/2-F/2| E F/2 G3/2| A2 B| A3|\
 z2 D| G A B| E3/2 E/2 D| G A B| E2 D| G G A| G2 F| E3| z2 E| E F G|\
 A2 B/2^c/2| d B/2 A3/2| G2 G/2A/2| B B D| A2 D| G3| z2|| D2 E| F2 E|\
 D/2 G3/2 B-| B2 G| A2 B| c2 A| E3| z z z| A2 A| A2 B| c/2 A3/2- A/2 F/2-|\
 F2 E| E2 D| G2 B| D3| z2 D/2D/2| D2 D| E2 F| G B2-| B2 G/2G/2| A2 B|\
 c2 A| E3| z2 F| G2 A| G2 E| D/2 G3/2 c-| c2 B/2B/2| A2 E| F2 D| G3|\
 z2||
